svg/Pictogram/pictograms-nps-water-whale_viewing.svg

<svg xmlns="http://www.w3.org/2000/svg" viewBox="0 0 256 256"><path d="m0 0c-.54 0-.979-.439-.979-.979v-7.522c0-.541.439-.981.979-.981h7.521c.541 0 .981.44.981.981v7.522c0 .54-.44.979-.981.979h-7.521" fill="#fff" transform="matrix(25.90569 0 0-25.90569 30.556 5.165)"/><path d="m0 0c.654 0 1.182.529 1.182 1.182v7.521c0 .652-.528 1.18-1.182 1.18h-7.521c-.652 0-1.179-.528-1.179-1.18v-7.521c0-.653.527-1.182 1.179-1.182h7.521" transform="matrix(25.90569 0 0-25.90569 225.38 256)"/><g fill="#fff"><path d="m0 0c-.172 0-.336.039-.482.105-.153.071-.323.112-.498.112-.178 0-.348-.041-.499-.112-.146-.066-.312-.105-.482-.105-.172 0-.338.039-.484.105-.151.071-.321.112-.498.112-.176 0-.346-.041-.496-.112-.147-.066-.313-.105-.485-.105-.172 0-.336.039-.482.105-.151.071-.321.112-.498.112-.176 0-.346-.041-.498-.112-.147-.066-.311-.105-.482-.105-.172 0-.336.039-.482.105-.151.071-.321.112-.498.112-.176 0-.346-.041-.498-.112-.147-.066-.311-.105-.483-.105v.725c.172 0 .336.039.483.105.152.068.322.109.498.109.177 0 .347-.041.498-.109.146-.066.31-.105.482-.105.171 0 .335.039.482.105.152.068.322.109.498.109.177 0 .347-.041.498-.109.146-.066.31-.105.482-.105.172 0 .338.039.485.105.15.068.32.109.496.109.177 0 .347-.041.498-.109.146-.066.312-.105.484-.105.17 0 .336.039.482.105.151.068.321.109.499.109.175 0 .345-.041.498-.109.146-.066.31-.105.482-.105v-.725" transform="matrix(25.90569 0 0-25.90569 230.24 230.55)"/><path d="m0 0c.074.016.148.023.225.023.177 0 .347-.041.498-.109.146-.066.312-.105.484-.105.17 0 .336.039.482.105.104.047.215.084.334.1-.064 1.943-2.091 3.677-2.187 3.767-.1.09-.191.287-.127.52l.484 1.601c.086.248.043.58-.076.68-.068.055-.213.094-.31-.018l-1.311-1.486c-.287-.305-.047-.631-.053-.629-.445.16-.968.053-1.286-.078l-1.082-.549c-.107-.045-.154-.181-.097-.273.179-.287.775-.289 2.02-.154 2.01.214 2.01-2.999 2.01-3.395" transform="matrix(25.90569 0 0-25.90569 148.17 191.79)"/></g></svg>

<?xml version="1.0" encoding="UTF-8" standalone="no"?>
<!-- Created with Inkscape (http://www.inkscape.org/) -->
<svg
   xmlns:dc="http://purl.org/dc/elements/1.1/"
   xmlns:cc="http://creativecommons.org/ns#"
   xmlns:rdf="http://www.w3.org/1999/02/22-rdf-syntax-ns#"
   xmlns:svg="http://www.w3.org/2000/svg"
   xmlns="http://www.w3.org/2000/svg"
   xmlns:sodipodi="http://sodipodi.sourceforge.net/DTD/sodipodi-0.dtd"
   xmlns:inkscape="http://www.inkscape.org/namespaces/inkscape"
   width="256"
   height="256"
   id="svg5294"
   sodipodi:version="0.32"
   inkscape:version="0.46"
   version="1.0"
   sodipodi:docname="pictograms-nps-whale_viewing-2.svg"
   inkscape:output_extension="org.inkscape.output.svg.inkscape">
  <defs
     id="defs5296">
    <inkscape:perspective
       sodipodi:type="inkscape:persp3d"
       inkscape:vp_x="0 : 526.18109 : 1"
       inkscape:vp_y="0 : 1000 : 0"
       inkscape:vp_z="744.09448 : 526.18109 : 1"
       inkscape:persp3d-origin="372.04724 : 350.78739 : 1"
       id="perspective5302" />
  </defs>
  <sodipodi:namedview
     id="base"
     pagecolor="#ffffff"
     bordercolor="#666666"
     borderopacity="1.0"
     gridtolerance="10000"
     guidetolerance="10"
     objecttolerance="10"
     inkscape:pageopacity="0.0"
     inkscape:pageshadow="2"
     inkscape:zoom="1.4"
     inkscape:cx="124.57192"
     inkscape:cy="95.799496"
     inkscape:document-units="px"
     inkscape:current-layer="layer1"
     showgrid="false"
     inkscape:window-width="747"
     inkscape:window-height="674"
     inkscape:window-x="0"
     inkscape:window-y="309" />
  <metadata
     id="metadata5299">
    <rdf:RDF>
      <cc:Work
         rdf:about="">
        <dc:format>image/svg+xml</dc:format>
        <dc:type
           rdf:resource="http://purl.org/dc/dcmitype/StillImage" />
      </cc:Work>
    </rdf:RDF>
  </metadata>
  <g
     inkscape:label="Layer 1"
     inkscape:groupmode="layer"
     id="layer1">
    <g
       id="g4654"
       transform="matrix(25.905687,0,0,-25.905687,30.555862,5.1653868)">
      <path
         d="M 0,0 C -0.54,0 -0.979,-0.439 -0.979,-0.979 L -0.979,-8.501 C -0.979,-9.042 -0.54,-9.482 0,-9.482 L 7.521,-9.482 C 8.062,-9.482 8.502,-9.042 8.502,-8.501 L 8.502,-0.979 C 8.502,-0.439 8.062,0 7.521,0 L 0,0 z"
         style="fill:#ffffff;fill-opacity:1;fill-rule:nonzero;stroke:none"
         id="path4656" />
    </g>
    <g
       id="g4658"
       transform="matrix(25.905687,0,0,-25.905687,225.37948,256)">
      <path
         d="M 0,0 C 0.654,0 1.182,0.529 1.182,1.182 L 1.182,8.703 C 1.182,9.355 0.654,9.883 0,9.883 L -7.521,9.883 C -8.173,9.883 -8.7,9.355 -8.7,8.703 L -8.7,1.182 C -8.7,0.529 -8.173,0 -7.521,0 L 0,0 z"
         style="fill:#000000;fill-opacity:1;fill-rule:nonzero;stroke:none"
         id="path4660" />
    </g>
    <g
       id="g4662"
       transform="matrix(25.905687,0,0,-25.905687,230.23669,230.54984)">
      <path
         d="M 0,0 C -0.172,0 -0.336,0.039 -0.482,0.105 C -0.635,0.176 -0.805,0.217 -0.98,0.217 C -1.158,0.217 -1.328,0.176 -1.479,0.105 C -1.625,0.039 -1.791,0 -1.961,0 C -2.133,0 -2.299,0.039 -2.445,0.105 C -2.596,0.176 -2.766,0.217 -2.943,0.217 C -3.119,0.217 -3.289,0.176 -3.439,0.105 C -3.586,0.039 -3.752,0 -3.924,0 C -4.096,0 -4.26,0.039 -4.406,0.105 C -4.557,0.176 -4.727,0.217 -4.904,0.217 C -5.08,0.217 -5.25,0.176 -5.402,0.105 C -5.549,0.039 -5.713,0 -5.884,0 C -6.056,0 -6.22,0.039 -6.366,0.105 C -6.517,0.176 -6.687,0.217 -6.864,0.217 C -7.04,0.217 -7.21,0.176 -7.362,0.105 C -7.509,0.039 -7.673,0 -7.845,0 L -7.845,0.725 C -7.673,0.725 -7.509,0.764 -7.362,0.83 C -7.21,0.898 -7.04,0.939 -6.864,0.939 C -6.687,0.939 -6.517,0.898 -6.366,0.83 C -6.22,0.764 -6.056,0.725 -5.884,0.725 C -5.713,0.725 -5.549,0.764 -5.402,0.83 C -5.25,0.898 -5.08,0.939 -4.904,0.939 C -4.727,0.939 -4.557,0.898 -4.406,0.83 C -4.26,0.764 -4.096,0.725 -3.924,0.725 C -3.752,0.725 -3.586,0.764 -3.439,0.83 C -3.289,0.898 -3.119,0.939 -2.943,0.939 C -2.766,0.939 -2.596,0.898 -2.445,0.83 C -2.299,0.764 -2.133,0.725 -1.961,0.725 C -1.791,0.725 -1.625,0.764 -1.479,0.83 C -1.328,0.898 -1.158,0.939 -0.98,0.939 C -0.805,0.939 -0.635,0.898 -0.482,0.83 C -0.336,0.764 -0.172,0.725 0,0.725 L 0,0 z"
         style="fill:#ffffff;fill-opacity:1;fill-rule:nonzero;stroke:none"
         id="path4664" />
    </g>
    <g
       id="g4666"
       transform="matrix(25.905687,0,0,-25.905687,148.16768,191.79265)">
      <path
         d="M 0,0 C 0.074,0.016 0.148,0.023 0.225,0.023 C 0.402,0.023 0.572,-0.018 0.723,-0.086 C 0.869,-0.152 1.035,-0.191 1.207,-0.191 C 1.377,-0.191 1.543,-0.152 1.689,-0.086 C 1.793,-0.039 1.904,-0.002 2.023,0.014 C 1.959,1.957 -0.068,3.691 -0.164,3.781 C -0.264,3.871 -0.355,4.068 -0.291,4.301 L 0.193,5.902 C 0.279,6.15 0.236,6.482 0.117,6.582 C 0.049,6.637 -0.096,6.676 -0.193,6.564 L -1.504,5.078 C -1.791,4.773 -1.551,4.447 -1.557,4.449 C -2.002,4.609 -2.525,4.502 -2.843,4.371 L -3.925,3.822 C -4.032,3.777 -4.079,3.641 -4.022,3.549 C -3.843,3.262 -3.247,3.26 -2.006,3.395 C 0,3.609 0.002,0.396 0,0"
         style="fill:#ffffff;fill-opacity:1;fill-rule:nonzero;stroke:none"
         id="path4668" />
    </g>
  </g>
</svg>
